X: 22
T: Fire and Water
%R: reel
B: "Twenty Four Country Dances for the Year 1781", Thomas Skillern, ed. p.11 #2
F: http://www.vwml.org/browse/browse-collections-dance-tune-books/browse-skillerns1781#
Z: 2014 John Chambers <jc:trillian.mit.edu>
M: C|
L: 1/16
K: G
Bc |\
d3e d3e d3c B3b | a2g2 a2gf gfga g2b2 |\
agfe d2f2 ed^cB A2A2 | B2g2 fed^c d4 D2 :|
|: Bc |\
d3ed3e c3dc3d | B2cd cBAG AGFE D2D2 |\
GABc d2B2 cdef g3e | d3e dBAB G3A G2 :|
%%begintext align
%%   First & 2d Cu. Chassee pas Rigadoon
%% and Allmande .| the same back again
%% and Allmand :| Le chain :|. Cross
%% over and Right and Left :|:
%%endtext

%%sep 1 1 500
%%sep 1 1 500
